public/avatar/shoe/179.svg

<svg xmlns:xlink="http://www.w3.org/1999/xlink" height="38.3" width="36.05" xmlns="http://www.w3.org/2000/svg"><use height="19.7" transform="translate(7.35 10.25)" width="24.6" xlink:href="#a"/><defs><g id="a" fill-rule="evenodd"><path d="m.6-4.35 2.1.65 1.55.1L5.8-1Q8.3 2.55 7 5.5l.5.55q.55.5.65 1.95.05 1.6-.75 2.45-3.85 3.7-11.9 4.45-8.85 1-11.35-2.5-.8-1.15-.55-3.95l.45-2.75.75-.85 1.05-1.5 2.2-1.1q-.35-.55.55-1.95l2.35-.85q-.6-.75.5-2.05L-6.8-3l.45-1.15 2.1.25Q-1.9-5 .6-4.35" fill="#1f1e21" transform="translate(16.45 4.6)"/><path d="M6.45 5.9q.95.65.45 2.65-.55 2.75-8.5 4.5-6.6 1.5-13-2.6L6.45 5.9" fill="#681c04" transform="translate(16.45 4.6)"/><path d="M2.9-2.1q.2 1.05-.15 2.1-.25 1.05-1.6 1.8-1.75 1-3.25.2-.85-.4-1-2.45-.05-.8-.75-2.1l-.55-.5v-.15l1-.4 1.55-.1 2.6.3q2 .8 2.15 1.3" fill="#ca521f" transform="translate(16.45 4.6)"/><path d="M2.85-2.2q.65.5-.1 2Q1.9 1.15.55 1.4-2 1.8-2.65-.65l-.1-1.05-.85-.8q-.7-.55-.6-.75l.8-.4 1.7-.05.1.1q.55.65 1.25 2.1 1.3.8 2.45-.15l.75-.55" fill="#ca521f" transform="translate(16.45 4.6)"/><path d="m-6.35-1.55 3.9.85q1.85 2.75 4.5 1l.65-1.65q.3-1.45.85-1.5.7-.1 1.95 3.8 1.3 3.85.95 4.95Q6.15 7 2.7 8.4q-3.7 1.4-8.15 2-5.7.65-8.8-3.15-.85-1.1.25-2.95.3-.6 1.6-1.2 1.2-.55 1.65-.5 1.9.45 4.4-4.15" fill="#f4260b" transform="translate(16.45 4.6)"/><path d="M-14.6 5.7q1.7 2.85 5.25 3.45l3.85.4q1.45.25.85 3.9-.45.9-5.7.05-3.05-.45-4.05-1.35-.9-.9-.95-3.1 0-4.65.75-3.35" fill="#681c04" transform="translate(16.45 4.6)"/><path d="m-14.65 6.25 1.8 2.45q1.05 1.05 3.7 1.25l3 .05q.85.15.7 3.4-.15.65-5.9-.6-3.25-.65-3.45-2.75-.55-3.05.15-3.8m10.6-6.5q1.4-1.2 1.55-.75.4 1.1 2.35 2.1 1.5.85 2.85-1.95 1.45 3.4-1.5 4.8-1.95.9-4.35.35-2.65-.85-2.4-2.7.1-.65 1.5-1.85" fill="#f4e206" transform="translate(16.45 4.6)"/><path d="M-6.45-2.1q.35-1.5.9-1.5 1.05-.05 2.15.65 1.1.65 1.1 1.45 0 .7-1.2 2.55l-1.45 2L-6.2 4.3q-1.2 1-2.55 1.15-2.4.35-2.4-2-.05-.85 1.25-1.65 1.1-.75 3.45-3.9M5.15.1q1.75 3.2 1.3 5.8Q6.2 7 3.15 8.2q-.25-.8-.25-2.7.05-1.3 1.05-3.55 1-2.3 1.2-1.85" fill="#f4e206" transform="translate(16.45 4.6)"/><path d="M-6.55-2.35q4.5.25 4.75 2.4.15.9-.85 1.65l-2.15-.15L-7.9.2q-.5 0-.6-.65-.1-.6.15-1 .5-.9 1.8-.9" fill="#1f1e21" transform="translate(16.45 4.6)"/><path d="m-8.1.05-.05.15.85.1 1.75.55q1.8.55 1.9 1.8.1 1.2-.85 1.7-.4.25-2.15-.45-1.3-.6-2.75-.9-1.8-.4-1.9-.65-.45-1.2 1-1.9L-9.15.1-8.1.05" fill="#1f1e21" transform="translate(16.45 4.6)"/><path d="M-6.25-1.85q3.4.6 3.8 1.8.2.5-.75 1.3l-1.05-.15-3.7-1.35q-.4-.4.2-1.2.3-.5 1.5-.4M-8.55.6q2.6.15 4.1 1.65.15.2-.2.85-.3.65-.65.65l-2.35-.85-3.05-.65q-.45-.35.7-1.3Q-9.4.4-8.55.6" fill="#eee5b6" transform="translate(16.45 4.6)"/><path d="M-5.6-1.7q.55.05-1.4 1.95L-8.15-.7q0-.8.85-1.2l1.7.2M-7.5.7l-1.35 1.95-1.4-.2-.5-.55q.1-.65 1.3-1.3l1.95.1" fill="#fafcfb" transform="translate(16.45 4.6)"/></g></defs></svg>

<?xml version="1.0" encoding="UTF-8" standalone="no"?>
<svg xmlns:xlink="http://www.w3.org/1999/xlink" height="38.3px" width="36.05px" xmlns="http://www.w3.org/2000/svg">
  <g transform="matrix(1.0, 0.0, 0.0, 1.0, 23.8, 14.85)">
    <use height="19.7" transform="matrix(1.0, 0.0, 0.0, 1.0, -16.45, -4.6)" width="24.6" xlink:href="#shape0"/>
  </g>
  <defs>
    <g id="shape0" transform="matrix(1.0, 0.0, 0.0, 1.0, 16.45, 4.6)">
      <path d="M0.6 -4.35 L2.7 -3.7 4.25 -3.6 5.8 -1.0 Q8.3 2.55 7.0 5.5 L7.5 6.05 Q8.05 6.55 8.15 8.0 8.2 9.6 7.4 10.45 3.55 14.15 -4.5 14.9 -13.35 15.9 -15.85 12.4 -16.65 11.25 -16.4 8.45 L-15.95 5.7 -15.2 4.85 -14.15 3.35 -11.95 2.25 Q-12.3 1.7 -11.4 0.3 L-9.05 -0.55 Q-9.65 -1.3 -8.55 -2.6 L-6.8 -3.0 -6.35 -4.15 -4.25 -3.9 Q-1.9 -5.0 0.6 -4.35" fill="#1f1e21" fill-rule="evenodd" stroke="none"/>
      <path d="M6.45 5.9 Q7.4 6.55 6.9 8.55 6.35 11.3 -1.6 13.05 -8.2 14.55 -14.6 10.45 L6.45 5.9" fill="#681c04" fill-rule="evenodd" stroke="none"/>
      <path d="M2.9 -2.1 Q3.1 -1.05 2.75 0.0 2.5 1.05 1.15 1.8 -0.6 2.8 -2.1 2.0 -2.95 1.6 -3.1 -0.45 -3.15 -1.25 -3.85 -2.55 L-4.4 -3.05 -4.4 -3.2 -3.4 -3.6 -1.85 -3.7 0.75 -3.4 Q2.75 -2.6 2.9 -2.1" fill="#ca521f" fill-rule="evenodd" stroke="none"/>
      <path d="M2.85 -2.2 Q3.5 -1.7 2.75 -0.2 1.9 1.15 0.55 1.4 -2.0 1.8 -2.65 -0.65 L-2.75 -1.7 -3.6 -2.5 Q-4.3 -3.05 -4.2 -3.25 L-3.4 -3.65 -1.7 -3.7 -1.6 -3.6 Q-1.05 -2.95 -0.35 -1.5 0.95 -0.7 2.1 -1.65 L2.85 -2.2" fill="#ca521f" fill-rule="evenodd" stroke="none"/>
      <path d="M-6.35 -1.55 L-2.45 -0.7 Q-0.6 2.05 2.05 0.3 L2.7 -1.35 Q3.0 -2.8 3.55 -2.85 4.25 -2.95 5.5 0.95 6.8 4.8 6.45 5.9 6.15 7.0 2.7 8.4 -1.0 9.8 -5.45 10.4 -11.15 11.05 -14.25 7.25 -15.1 6.15 -14.0 4.3 -13.7 3.7 -12.4 3.1 -11.2 2.55 -10.75 2.6 -8.85 3.05 -6.35 -1.55" fill="#f4260b" fill-rule="evenodd" stroke="none"/>
      <path d="M-14.6 5.7 Q-12.9 8.55 -9.35 9.15 L-5.5 9.55 Q-4.05 9.8 -4.65 13.45 -5.1 14.35 -10.35 13.5 -13.4 13.05 -14.4 12.15 -15.3 11.25 -15.35 9.05 -15.35 4.4 -14.6 5.7" fill="#681c04" fill-rule="evenodd" stroke="none"/>
      <path d="M-14.65 6.25 L-12.85 8.7 Q-11.8 9.75 -9.15 9.95 L-6.15 10.0 Q-5.3 10.15 -5.45 13.4 -5.6 14.05 -11.35 12.8 -14.6 12.15 -14.8 10.05 -15.35 7.0 -14.65 6.25" fill="#f4e206" fill-rule="evenodd" stroke="none"/>
      <path d="M-4.05 -0.25 Q-2.65 -1.45 -2.5 -1.0 -2.1 0.1 -0.15 1.1 1.35 1.95 2.7 -0.85 4.15 2.55 1.2 3.95 -0.75 4.85 -3.15 4.3 -5.8 3.45 -5.55 1.6 -5.45 0.95 -4.05 -0.25" fill="#f4e206" fill-rule="evenodd" stroke="none"/>
      <path d="M-6.45 -2.1 Q-6.1 -3.6 -5.55 -3.6 -4.5 -3.65 -3.4 -2.95 -2.3 -2.3 -2.3 -1.5 -2.3 -0.8 -3.5 1.05 L-4.95 3.05 -6.2 4.3 Q-7.4 5.3 -8.75 5.45 -11.15 5.8 -11.15 3.45 -11.2 2.6 -9.9 1.8 -8.8 1.05 -6.45 -2.1" fill="#f4e206" fill-rule="evenodd" stroke="none"/>
      <path d="M5.15 0.1 Q6.9 3.3 6.45 5.9 6.2 7.0 3.15 8.2 2.9 7.4 2.9 5.5 2.95 4.2 3.95 1.95 4.95 -0.35 5.15 0.1" fill="#f4e206" fill-rule="evenodd" stroke="none"/>
      <path d="M-6.55 -2.35 Q-2.05 -2.1 -1.8 0.05 -1.65 0.95 -2.65 1.7 L-4.8 1.55 -7.9 0.2 Q-8.4 0.2 -8.5 -0.45 -8.6 -1.05 -8.35 -1.45 -7.85 -2.35 -6.55 -2.35" fill="#1f1e21" fill-rule="evenodd" stroke="none"/>
      <path d="M-8.1 0.05 L-8.15 0.2 -7.3 0.3 -5.55 0.85 Q-3.75 1.4 -3.65 2.65 -3.55 3.85 -4.5 4.35 -4.9 4.6 -6.65 3.9 -7.95 3.3 -9.4 3.0 -11.2 2.6 -11.3 2.35 -11.75 1.15 -10.3 0.45 L-9.15 0.1 -8.1 0.05" fill="#1f1e21" fill-rule="evenodd" stroke="none"/>
      <path d="M-6.25 -1.85 Q-2.85 -1.25 -2.45 -0.05 -2.25 0.45 -3.2 1.25 L-4.25 1.1 -7.95 -0.25 Q-8.35 -0.65 -7.75 -1.45 -7.45 -1.95 -6.25 -1.85" fill="#eee5b6" fill-rule="evenodd" stroke="none"/>
      <path d="M-8.55 0.6 Q-5.95 0.75 -4.45 2.25 -4.3 2.45 -4.65 3.1 -4.95 3.75 -5.3 3.75 L-7.65 2.9 -10.7 2.25 Q-11.15 1.9 -10.0 0.95 -9.4 0.4 -8.55 0.6" fill="#eee5b6" fill-rule="evenodd" stroke="none"/>
      <path d="M-5.6 -1.7 Q-5.05 -1.65 -7.0 0.25 L-8.15 -0.7 Q-8.15 -1.5 -7.3 -1.9 L-5.6 -1.7" fill="#fafcfb" fill-rule="evenodd" stroke="none"/>
      <path d="M-7.5 0.7 L-8.85 2.65 -10.25 2.45 -10.75 1.9 Q-10.65 1.25 -9.45 0.6 L-7.5 0.7" fill="#fafcfb" fill-rule="evenodd" stroke="none"/>
    </g>
  </defs>
</svg>
